X:2
T:A Tune For Lottie
T:Seconds
R:Air
C:Danny Hutcheson
M:4/4
L:1/8
K:D
[| {g}de | {g}f>e {g}f<a {e}f2 {g}f/e/d | {gCd}B2 {gf}g>f {g}f<A {g}de/f/ | {gf}g2 {fg}f>e {g}f<a A/B/d | {gef}e4 {A}e3 a | 
{g}a>g {a}f<a {Gdc}d3 e/f/ | {gf}g>a f/e/d {gBd}B3 {g}A/B/ | {gc}d>f {gef}e/d/{A}B {g}e>f d<{e}B| {G}A6 {g}de |
{g}(d8 | (d8) | (d8) | d4) c4 | 
{g}(d8 | (d8) | (d8) | d8) || 
{g}(d8 | (d8) | (d8) | d4) c4 | 
{g}(d8 | (d8) | (d8) | d6) {g}dc |
 {g}(d8 | (d8) | d8) | {g}A8 | 
{g}(d8 | (d8) |d4) {g}e4 [M:6/4]| {gf}g4 f8 |]

